X:1
T:Title
L:1/8
Q:1/4=130
M:4/4
K:F
V:1 treble nm="Church Organ, Staff"
V:1
 F2 F4 c2 | A4 F2 E2- | E2 F2 G2 z2 | A2 c4 A2- | A2 G2 G2 F2- | F2 F2 F4 | cc A4 F2 | E4 F2 G2 | %8
w: By~Tune:~Aus~meines~Herzens~Grunde * *||||||||
 z2 A2 c4 | A4 G2 G2 | F4 A2 A2- | A2 c2 c4 | A2 G4 F2 | A4 G2 c2- | c2 G2 A4 | F2 z2 A2 c2- | %16
w: ||||||||
 c2 B2 A4 | F2 E4 F2 | G2 z2 A2 c2- | c2 A4 G2 | G2 F4 z2 |] %21
w: |||||

